X: 4
T: The Mug Of Brown Ale
R: jig
M: 6/8
L: 1/8
K: Ador
f|eAA fAA|~g3 age|dBA ~G3|BAG Bcd|eAA fAA|~g3 age|def gdB|cAA A2:|z|efg ~a3|aba age|def ~g3|gba ged|efg ~a3|aba age|def gdB|cAA A2:|


Tune 888	Setting 28796

